icon/lg/booqable.svg

<?xml version="1.0" encoding="UTF-8"?>
<svg viewBox="0 0 512 82" version="1.1" xmlns="http://www.w3.org/2000/svg" xmlns:xlink="http://www.w3.org/1999/xlink" preserveAspectRatio="xMidYMid" height="1em" width="1em">
  <g>
    <path d="M124.917487,63.6789418 C122.432565,66.4770457 117.719428,65.7146266 109.830829,61.3583124 C105.271716,58.8708237 100.286471,55.4951295 95.0137132,51.9269052 L92.9882967,50.5689263 C89.7640594,48.402321 86.4294383,46.1638378 83.2283047,44.2000309 C82.3914406,43.6968856 81.5520094,43.1963074 80.779322,42.7547717 L79.1492339,41.8537309 C77.3702559,40.8679769 75.8325822,40.1081248 74.5464812,39.5690405 C74.2846403,39.4483883 74.0253665,39.3354374 73.70705,39.2019498 L73.70705,39.1993828 C73.214173,38.9837491 72.7187289,38.7732495 72.2232848,38.5704511 L71.9434744,38.4035917 L71.815121,38.4035917 C63.2693522,34.9585867 54.2384075,33.2129805 44.9430548,33.2129805 C37.3573693,33.2129805 29.9975858,34.3886976 22.9407163,36.6631197 C35.6271656,24.905949 51.722681,13.9779411 57.4292728,10.6587224 C59.8936579,9.22116442 62.9382004,8.46131234 66.2343155,8.46131234 C69.5458331,8.46131234 72.7469667,9.2468351 75.2472908,10.6741248 C88.9708355,18.4985476 123.754605,45.1241754 126.021326,58.9940429 L126.023893,59.0145795 C126.34991,60.9475816 125.987954,62.4724199 124.917487,63.6789418 M11.3427037,65.1216339 C9.75882285,65.1216339 8.60877645,64.6621288 7.73854045,63.6840759 C6.59876233,62.3954078 6.20086681,60.773021 6.52688443,58.7142326 C6.65267075,57.9056062 6.90681047,57.0199678 7.28930358,56.0650185 C7.31497426,55.9931406 7.35604734,55.9161286 7.38685216,55.8468178 C7.55627864,55.4360869 7.73597339,55.0176549 7.95160708,54.5838204 C8.03375326,54.416961 8.13900304,54.2398333 8.22628334,54.0704068 C8.41111223,53.7161515 8.59080698,53.3670302 8.80130654,52.9999395 L9.00153783,52.6713548 C9.01694024,52.6456842 9.03747678,52.6174464 9.05287919,52.5917757 C10.6213576,49.9707995 13.0831757,47.7862247 16.1764925,46.2690876 C25.1612299,41.8639992 34.8390757,39.6306502 44.9430548,39.6306502 C48.6011265,39.6306502 52.2129909,39.925863 55.7632458,40.5188556 C55.61949,40.5855994 55.4731671,40.6677456 55.3294113,40.7370564 C54.8699062,40.9629584 54.4052669,41.1965616 53.9354935,41.440433 C53.6839208,41.5713535 53.4323482,41.7022739 53.1756414,41.8383285 C52.7007338,42.0950353 52.2181251,42.3594433 51.7355163,42.6289854 C51.496779,42.7624729 51.2631758,42.8908263 51.0244385,43.0268809 C50.3929398,43.3888375 49.756307,43.7610623 49.1171071,44.1435554 C48.9810525,44.2231345 48.847565,44.3027136 48.7115104,44.3848598 C48.0440728,44.7853224 47.371501,45.1986203 46.6963621,45.6196195 C46.3934481,45.8095825 46.0879671,46.0046796 45.782486,46.1972097 C45.3435174,46.474453 44.9045488,46.7516964 44.4630131,47.0366409 C44.1215931,47.2548417 43.777606,47.4781766 43.4336189,47.6989444 C43.022888,47.9684865 42.6095901,48.2354616 42.1962922,48.5075708 C41.847171,48.7360398 41.5006168,48.9619418 41.1514956,49.1929779 C40.7279294,49.4727883 40.3017961,49.7551658 39.8782299,50.0375432 C39.5342428,50.2660123 39.1876887,50.4944813 38.8437016,50.7229503 C38.1480262,51.1875896 37.4523508,51.6522289 36.7592425,52.1168682 C27.1507075,58.5114342 17.216155,65.1216339 11.3427037,65.1216339 M132.351715,57.9518134 C129.35338,39.6717232 88.9990732,11.1284958 78.4253207,5.09845346 C74.9700474,3.12951241 70.641971,2.04364271 66.2343155,2.04364271 C61.8061235,2.04364271 57.6423394,3.10384174 54.2024685,5.11128879 C46.0314916,9.86293138 19.675406,27.9633268 7.02746266,44.2565064 C5.73366046,45.9225335 4.61441888,47.5295179 3.69284152,49.044088 L3.46180542,49.4137457 C1.65202258,52.4711235 0.578988221,55.1870813 0.186226841,57.7233444 C-0.437570647,61.6689276 0.512244457,65.201213 2.93812357,67.9454085 C5.03541801,70.2968427 7.94133881,71.5418706 11.3427037,71.5418706 C19.1568582,71.5418706 29.4328308,64.7006348 40.4814909,57.3485525 C49.4559601,51.3467478 60.6227052,43.8765804 66.3241629,43.8765804 C67.2226367,43.8765804 68.3726831,44.1101836 69.7434973,44.5722558 L70.1003197,44.695475 C70.4058008,44.8007248 70.7138489,44.9188099 71.0270312,45.0420292 L71.9588768,45.4424918 C73.1294598,45.9328017 74.4669021,46.5976723 76.1740022,47.5423533 C76.3716665,47.6527372 76.5770319,47.7656882 76.6360745,47.7913589 C76.7592937,47.8606697 76.882513,47.9222793 77.0288358,47.9941572 L77.5499506,48.2996383 C78.3277722,48.7463081 79.1235632,49.2212156 79.8962506,49.688422 C82.9638967,51.5649486 86.2394753,53.7674928 89.4098041,55.8955921 L91.4146841,57.2407356 C96.820929,60.9013744 101.926827,64.3592148 106.745213,66.9853252 C112.580158,70.2069953 117.093064,71.7061629 120.946233,71.7061629 C124.545262,71.7061629 127.49739,70.4405985 129.715336,67.9402744 C132.092441,65.2628226 133.001183,61.8101164 132.351715,57.9518134" fill="#1D1D1B"/>
    <path d="M173.127791,55.75466 C177.047704,55.75466 180.356654,54.4480225 182.972496,51.8373145 C185.585771,49.1367591 186.889842,45.8252416 186.889842,41.8154816 C186.889842,37.8108558 185.585771,34.5019053 182.972496,31.8860632 C180.356654,29.1855078 177.047704,27.8788703 173.127791,27.8788703 C169.207878,27.8788703 165.898928,29.1855078 163.283086,31.8860632 C160.669811,34.5019053 159.363173,37.8108558 159.363173,41.8154816 C159.363173,45.8252416 160.669811,49.1367591 163.283086,51.8373145 C165.898928,54.4480225 169.207878,55.75466 173.127791,55.75466 Z M189.942085,25.5274361 C194.208552,29.9684635 196.298145,35.3721413 196.298145,41.8154816 C196.298145,48.1766757 194.208552,53.6650668 189.942085,58.1086612 C185.673051,62.5496886 180.618495,64.7291292 174.608989,64.7291292 C167.988521,64.7291292 162.933964,62.2904148 159.363173,57.3231385 L159.363173,63.5970523 L149.954869,63.5970523 L149.954869,2.61635555 L159.363173,2.61635555 L159.363173,26.2231115 C162.933964,21.3456826 167.988521,18.9069681 174.608989,18.9069681 C180.618495,18.9069681 185.673051,21.0838417 189.942085,25.5274361 Z M221.912092,55.5816397 C225.744724,55.5816397 228.968961,54.2750021 231.582236,51.6617271 C234.195511,49.048452 235.502149,45.7369345 235.502149,41.8170219 C235.502149,37.8971092 234.195511,34.5855917 231.582236,31.9748837 C228.968961,29.3590416 225.744724,28.052404 221.912092,28.052404 C218.079459,28.052404 214.855222,29.3590416 212.241947,31.9748837 C209.628672,34.5855917 208.322034,37.8971092 208.322034,41.8170219 C208.322034,45.7369345 209.628672,49.048452 212.241947,51.6617271 C214.855222,54.2750021 218.079459,55.5816397 221.912092,55.5816397 Z M205.621479,58.1076344 C201.177885,53.66404 198.913731,48.2629292 198.913731,41.8170219 C198.913731,35.3711145 201.177885,29.9674367 205.621479,25.5264093 C210.065073,21.0853819 215.550897,18.9059413 221.912092,18.9059413 C228.357999,18.9059413 233.75911,21.0853819 238.202704,25.5264093 C242.643732,29.9674367 244.910452,35.3711145 244.910452,41.8170219 C244.910452,48.2629292 242.643732,53.66404 238.202704,58.1076344 C233.75911,62.5512289 228.357999,64.7281024 221.912092,64.7281024 C215.550897,64.7281024 210.065073,62.5512289 205.621479,58.1076344 Z M270.520805,55.5816397 C274.353437,55.5816397 277.577674,54.2750021 280.193517,51.6617271 C282.804225,49.048452 284.110862,45.7369345 284.110862,41.8170219 C284.110862,37.8971092 282.804225,34.5855917 280.193517,31.9748837 C277.577674,29.3590416 274.353437,28.052404 270.520805,28.052404 C266.688173,28.052404 263.466502,29.3590416 260.85066,31.9748837 C258.239952,34.5855917 256.930748,37.8971092 256.930748,41.8170219 C256.930748,45.7369345 258.239952,49.048452 260.85066,51.6617271 C263.466502,54.2750021 266.688173,55.5816397 270.520805,55.5816397 Z M254.230192,58.1076344 C249.789165,53.66404 247.522444,48.2629292 247.522444,41.8170219 C247.522444,35.3711145 249.789165,29.9674367 254.230192,25.5264093 C258.673787,21.0853819 264.162178,18.9059413 270.520805,18.9059413 C276.969279,18.9059413 282.367823,21.0853819 286.813984,25.5264093 C291.255012,29.9674367 293.519166,35.3711145 293.519166,41.8170219 C293.519166,48.2629292 291.255012,53.66404 286.813984,58.1076344 C282.367823,62.5512289 276.969279,64.7281024 270.520805,64.7281024 C264.162178,64.7281024 258.673787,62.5512289 254.230192,58.1076344 Z M319.305106,55.75466 C323.225018,55.75466 326.536536,54.4480225 329.149811,51.8373145 C331.765653,49.1367591 333.069723,45.8252416 333.069723,41.8154816 C333.069723,37.8108558 331.765653,34.5019053 329.149811,31.8860632 C326.536536,29.1855078 323.225018,27.8788703 319.305106,27.8788703 C315.38776,27.8788703 312.076242,29.1855078 309.462967,31.8860632 C306.847125,34.5019053 305.543055,37.8108558 305.543055,41.8154816 C305.543055,45.8252416 306.847125,49.1367591 309.462967,51.8373145 C311.912913,54.2848532 314.976548,55.5862363 318.577725,55.7393485 L319.305106,55.75466 Z M333.069723,20.039045 L342.478027,20.039045 L342.478027,81.0197418 L333.069723,81.0197418 L333.069723,57.4129859 C329.498932,62.2904148 324.446942,64.7291292 317.826474,64.7291292 C311.814402,64.7291292 306.759845,62.5496886 302.493378,58.1086612 C298.224344,53.6650668 296.134751,48.263956 296.134751,41.8154816 C296.134751,35.4594216 298.224344,30.0557438 302.493378,25.6147164 C306.759845,21.171122 311.814402,18.9069681 317.826474,18.9069681 C324.446942,18.9069681 329.498932,21.3456826 333.069723,26.3103918 L333.069723,20.039045 Z M370.704222,55.75466 C374.621567,55.75466 377.933085,54.4480225 380.548927,51.8373145 C383.162202,49.1367591 384.466272,45.8252416 384.466272,41.8154816 C384.466272,37.8108558 383.162202,34.5019053 380.548927,31.8860632 C377.933085,29.1855078 374.621567,27.8788703 370.704222,27.8788703 C366.784309,27.8788703 363.472791,29.1855078 360.859516,31.8860632 C358.246241,34.5019053 356.939604,37.8108558 356.939604,41.8154816 C356.939604,45.8252416 358.246241,49.1367591 360.859516,51.8373145 C363.309462,54.2848532 366.373097,55.5862363 369.97639,55.7393485 L370.704222,55.75466 Z M384.466272,20.039045 L393.874576,20.039045 L393.874576,63.5970523 L384.466272,63.5970523 L384.466272,57.3231385 C380.895481,62.2904148 375.843491,64.7291292 369.223023,64.7291292 C363.210951,64.7291292 358.158961,62.5496886 353.889927,58.1086612 C349.620893,53.6650668 347.5313,48.1766757 347.5313,41.8154816 C347.5313,35.3721413 349.620893,29.9684635 353.889927,25.5274361 C358.158961,21.0838417 363.210951,18.9069681 369.223023,18.9069681 C375.843491,18.9069681 380.895481,21.3456826 384.466272,26.2231115 L384.466272,20.039045 Z M424.539998,55.75466 C428.459911,55.75466 431.768861,54.4480225 434.382137,51.8373145 C436.997979,49.1367591 438.302049,45.8252416 438.302049,41.8154816 C438.302049,37.8108558 436.997979,34.5019053 434.382137,31.8860632 C431.768861,29.1855078 428.459911,27.8788703 424.539998,27.8788703 C420.620086,27.8788703 417.311135,29.1855078 414.695293,31.8860632 C412.079451,34.5019053 410.775381,37.8108558 410.775381,41.8154816 C410.775381,45.8252416 412.079451,49.1367591 414.695293,51.8373145 C417.311135,54.4480225 420.620086,55.75466 424.539998,55.75466 Z M441.351726,25.5274361 C445.62076,29.9684635 447.710353,35.3721413 447.710353,41.8154816 C447.710353,48.1766757 445.62076,53.6650668 441.351726,58.1086612 C437.085259,62.5496886 432.030702,64.7291292 426.018629,64.7291292 C419.400729,64.7291292 414.346172,62.2904148 410.775381,57.3231385 L410.775381,63.5970523 L401.367077,63.5970523 L401.367077,2.61635555 L410.775381,2.61635555 L410.775381,26.2231115 C414.346172,21.3456826 419.400729,18.9069681 426.018629,18.9069681 C432.030702,18.9069681 437.085259,21.0838417 441.351726,25.5274361 Z M452.763883,63.5939718 L462.172186,63.5939718 L462.172186,0 L452.763883,0 L452.763883,63.5939718 Z M502.506983,38.1586935 C501.200346,31.1018239 496.235636,27.4437523 490.049003,27.4437523 C483.081981,27.4437523 478.201985,31.5382255 476.89278,38.1586935 L502.506983,38.1586935 Z M476.982627,45.8239581 C478.376545,52.444426 483.690376,56.1050648 490.919239,56.1050648 C495.886515,56.1050648 499.631867,54.2747454 502.157862,50.703954 L509.910407,55.2322617 C505.64394,61.5934559 499.282746,64.7304128 490.831959,64.7304128 C483.777656,64.7304128 478.027424,62.5509722 473.67111,58.2819383 C469.314796,53.9281913 467.137922,48.4398002 467.137922,41.8167651 C467.137922,35.2835775 469.314796,29.8824667 473.58383,25.5261526 C477.852863,21.0851252 483.425968,18.9056846 490.136283,18.9056846 C496.49491,18.9056846 501.72146,21.1724055 505.815934,25.6134329 C509.910407,30.0570273 512,35.5428513 512,41.9040455 C512,42.8641288 511.915287,44.1707664 511.653446,45.8239581 L476.982627,45.8239581 Z" fill="#000000"/>
  </g>
</svg>

<svg width="512" height="82" xmlns="http://www.w3.org/2000/svg" preserveAspectRatio="xMidYMid"><path d="M124.917 63.679c-2.484 2.798-7.198 2.036-15.086-2.32-4.56-2.488-9.545-5.864-14.817-9.432l-2.026-1.358c-3.224-2.167-6.559-4.405-9.76-6.369a131.794 131.794 0 0 0-2.449-1.445l-1.63-.901c-1.779-.986-3.316-1.746-4.603-2.285-.261-.12-.52-.234-.839-.367v-.003a67.533 67.533 0 0 0-1.484-.629l-.28-.166h-.128c-8.546-3.445-17.577-5.191-26.872-5.191a71.428 71.428 0 0 0-22.002 3.45C35.627 24.906 51.723 13.978 57.429 10.66c2.465-1.438 5.51-2.198 8.805-2.198 3.312 0 6.513.786 9.013 2.213 13.724 7.825 48.508 34.45 50.774 48.32l.003.02c.326 1.934-.036 3.458-1.107 4.665M11.343 65.122c-1.584 0-2.734-.46-3.604-1.438-1.14-1.289-1.538-2.911-1.212-4.97.126-.808.38-1.694.762-2.649.026-.072.067-.149.098-.218.17-.41.349-.83.565-1.263.082-.167.187-.344.274-.514.185-.354.365-.703.575-1.07l.2-.329.052-.08c1.568-2.62 4.03-4.805 7.123-6.322 8.985-4.405 18.663-6.638 28.767-6.638 3.658 0 7.27.295 10.82.888-.144.067-.29.149-.434.218-.46.226-.924.46-1.394.703-.251.131-.503.262-.76.398-.474.257-.957.521-1.44.791-.238.133-.472.262-.71.398a117.722 117.722 0 0 0-2.313 1.358c-.668.4-1.34.814-2.016 1.235-.303.19-.608.385-.914.577-.438.277-.877.555-1.319.84l-1.03.662c-.41.27-.823.536-1.237.809-.349.228-.695.454-1.045.685-.423.28-.85.562-1.273.845l-1.034.685-2.085 1.394c-9.608 6.394-19.543 13.005-25.416 13.005m121.009-7.17c-2.999-18.28-43.353-46.824-53.927-52.854-3.455-1.968-7.783-3.054-12.19-3.054-4.429 0-8.593 1.06-12.033 3.067-8.17 4.752-34.527 22.852-47.175 39.146-1.293 1.666-2.413 3.273-3.334 4.787l-.231.37C1.652 52.47.579 55.187.186 57.724c-.624 3.945.326 7.477 2.752 10.221 2.097 2.352 5.003 3.597 8.405 3.597 7.814 0 18.09-6.841 29.138-14.193 8.975-6.002 20.142-13.472 25.843-13.472.899 0 2.049.233 3.42.695l.356.123c.306.106.614.224.927.347l.932.4c1.17.49 2.508 1.156 4.215 2.1.198.11.403.224.462.25.123.069.247.13.393.202l.521.306c.778.446 1.574.921 2.346 1.388 3.068 1.877 6.343 4.08 9.514 6.208l2.005 1.345c5.406 3.66 10.512 7.118 15.33 9.744 5.835 3.222 10.348 4.721 14.201 4.721 3.6 0 6.551-1.265 8.77-3.766 2.376-2.677 3.285-6.13 2.636-9.988" fill="#1D1D1B"/><path d="M173.128 55.755c3.92 0 7.229-1.307 9.844-3.918 2.614-2.7 3.918-6.012 3.918-10.022 0-4.004-1.304-7.313-3.918-9.929-2.615-2.7-5.924-4.007-9.844-4.007-3.92 0-7.23 1.307-9.845 4.007-2.613 2.616-3.92 5.925-3.92 9.93 0 4.01 1.307 7.32 3.92 10.021 2.616 2.611 5.925 3.918 9.845 3.918Zm16.814-30.228c4.267 4.441 6.356 9.845 6.356 16.288 0 6.362-2.09 11.85-6.356 16.294-4.269 4.44-9.324 6.62-15.333 6.62-6.62 0-11.675-2.439-15.246-7.406v6.274h-9.408V2.617h9.408v23.606c3.571-4.877 8.626-7.316 15.246-7.316 6.01 0 11.064 2.177 15.333 6.62Zm31.97 30.055c3.833 0 7.057-1.307 9.67-3.92 2.614-2.614 3.92-5.925 3.92-9.845 0-3.92-1.306-7.231-3.92-9.842-2.613-2.616-5.837-3.923-9.67-3.923s-7.057 1.307-9.67 3.923c-2.613 2.61-3.92 5.922-3.92 9.842 0 3.92 1.307 7.231 3.92 9.845 2.613 2.613 5.837 3.92 9.67 3.92Zm-16.29 2.526c-4.444-4.444-6.708-9.845-6.708-16.291s2.264-11.85 6.707-16.29c4.444-4.442 9.93-6.621 16.291-6.621 6.446 0 11.847 2.18 16.29 6.62 4.442 4.441 6.708 9.845 6.708 16.291s-2.266 11.847-6.707 16.29c-4.444 4.444-9.845 6.621-16.29 6.621-6.362 0-11.848-2.177-16.292-6.62Zm64.899-2.526c3.832 0 7.057-1.307 9.673-3.92 2.61-2.614 3.917-5.925 3.917-9.845 0-3.92-1.307-7.231-3.917-9.842-2.616-2.616-5.84-3.923-9.673-3.923s-7.054 1.307-9.67 3.923c-2.611 2.61-3.92 5.922-3.92 9.842 0 3.92 1.309 7.231 3.92 9.845 2.616 2.613 5.837 3.92 9.67 3.92Zm-16.29 2.526c-4.442-4.444-6.709-9.845-6.709-16.291s2.267-11.85 6.708-16.29c4.444-4.442 9.932-6.621 16.29-6.621 6.45 0 11.848 2.18 16.294 6.62 4.441 4.441 6.705 9.845 6.705 16.291s-2.264 11.847-6.705 16.29c-4.446 4.444-9.845 6.621-16.293 6.621-6.359 0-11.847-2.177-16.29-6.62Zm65.074-2.353c3.92 0 7.232-1.307 9.845-3.918 2.616-2.7 3.92-6.012 3.92-10.022 0-4.004-1.304-7.313-3.92-9.929-2.613-2.7-5.925-4.007-9.845-4.007-3.917 0-7.229 1.307-9.842 4.007-2.616 2.616-3.92 5.925-3.92 9.93 0 4.01 1.304 7.32 3.92 10.021 2.45 2.448 5.514 3.75 9.115 3.902l.727.016Zm13.765-35.716h9.408v60.98h-9.408V57.414c-3.571 4.877-8.623 7.316-15.244 7.316-6.012 0-11.066-2.18-15.333-6.62-4.269-4.444-6.358-9.845-6.358-16.294 0-6.356 2.09-11.76 6.358-16.2 4.267-4.444 9.321-6.708 15.333-6.708 6.62 0 11.673 2.439 15.244 7.403V20.04Zm37.634 35.716c3.918 0 7.23-1.307 9.845-3.918 2.613-2.7 3.917-6.012 3.917-10.022 0-4.004-1.304-7.313-3.917-9.929-2.616-2.7-5.927-4.007-9.845-4.007-3.92 0-7.231 1.307-9.844 4.007-2.614 2.616-3.92 5.925-3.92 9.93 0 4.01 1.306 7.32 3.92 10.021 2.45 2.448 5.513 3.75 9.116 3.902l.728.016Zm13.762-35.716h9.409v43.558h-9.409v-6.274c-3.57 4.967-8.623 7.406-15.243 7.406-6.012 0-11.064-2.18-15.333-6.62-4.27-4.444-6.359-9.932-6.359-16.294 0-6.443 2.09-11.847 6.359-16.288 4.269-4.443 9.321-6.62 15.333-6.62 6.62 0 11.672 2.439 15.243 7.316V20.04Zm40.074 35.716c3.92 0 7.229-1.307 9.842-3.918 2.616-2.7 3.92-6.012 3.92-10.022 0-4.004-1.304-7.313-3.92-9.929-2.613-2.7-5.922-4.007-9.842-4.007-3.92 0-7.229 1.307-9.845 4.007-2.616 2.616-3.92 5.925-3.92 9.93 0 4.01 1.304 7.32 3.92 10.021 2.616 2.611 5.925 3.918 9.845 3.918Zm16.812-30.228c4.269 4.441 6.358 9.845 6.358 16.288 0 6.362-2.09 11.85-6.358 16.294-4.267 4.44-9.321 6.62-15.333 6.62-6.618 0-11.673-2.439-15.244-7.406v6.274h-9.408V2.617h9.408v23.606c3.571-4.877 8.626-7.316 15.244-7.316 6.012 0 11.066 2.177 15.333 6.62Zm11.412 38.067h9.408V0h-9.408v63.594Zm49.743-25.435c-1.307-7.057-6.271-10.715-12.458-10.715-6.967 0-11.847 4.094-13.156 10.715h25.614Zm-25.524 7.665c1.394 6.62 6.707 10.281 13.936 10.281 4.968 0 8.713-1.83 11.239-5.401l7.752 4.528c-4.266 6.361-10.627 9.498-19.078 9.498-7.054 0-12.805-2.179-17.16-6.448-4.357-4.354-6.534-9.842-6.534-16.465 0-6.533 2.177-11.935 6.446-16.29 4.269-4.442 9.842-6.621 16.552-6.621 6.359 0 11.585 2.266 15.68 6.707 4.094 4.444 6.184 9.93 6.184 16.291 0 .96-.085 2.267-.347 3.92h-34.67Z"/></svg>
